X:1
T:All Rights Reserved
Z:All Rights Reserved
%%score ( 1 2 3 ) { 4 | ( 5 6 ) }
L:1/8
Q:1/4=84
M:4/4
K:Bb
V:1 treble nm="Church Organ, Right Hand"
V:2 treble 
V:3 treble 
V:4 bass nm="Church Organ, Left Hand"
V:5 bass 
V:6 bass 
V:1
 F2 [B,D]2 [DF]2 [DB]2 | .B2 z2 z4 | [DF]2 [EG]2 E2 [EG][GB] | z2 .F4 z2 | F2 [B,D]2 [DF]2 [DB]2 | %5
w: Et~lidet~barn~s�~lysteligt * * *|||||
 Bc [Fd]2- [Fd][DB] F2 | [DF]2 [EG]2 E2 [EG][GB] | z2 .F4 z2 | [B,D]2 [A,C]2 [B,D]2 [CE]2 | %9
w: ||||
 [A,C]2 [B,D]2- [B,D][CE] [DF]2 | z2 =E2 z4 | z2 F4 z2 | [CF]2 [DF]2 D2 [DB]2 | %13
w: ||||
 [=EG]2 c2- [Ec]2[Q:1/4=42] F2 |[Q:1/4=84] z2 E2 z4 | [DF]2 [CE][B,D] [CE][A,F] [B,D]2 | %16
w: |||
 [DF]2 [EG]2 E2 [EG]2 | [Gc]2 BA cB A2 | F2 d2- dB[EG][GB] | z2 F4[Q:1/4=42] z2[Q:1/4=84] |] %20
w: ||||
V:2
 x8 | G-[Gc] [Fd]2- [Fd][DB] F2 | x8 | [FA][EG] D2 z E [B,D]2 | x8 | G2 z2 z4 | x8 | %7
 [FA][EG] D2 z E [B,D]2 | x8 | x8 | [DF]2 C2- [C-F]2 [C-G]2 | [C=E]2 C2- C-[C-G] [CA]2 | x8 | %13
 z2 F2 z4 | [CF]2 C2- [CF]2 [B,D]2 | x8 | x8 | z2 F6 | z2 F4 z2 | [FA][EG] D2 C2 B,2 |] %20
V:3
 x8 | x8 | x8 | z4 C2 z2 | x8 | x8 | x8 | z4 C2 z2 | x8 | x8 | x8 | x8 | x8 | x8 | x8 | x8 | x8 | %17
 x8 | x8 | x8 |] %20
V:4
 F,2 F,2 B,2 B,2 | G,2 B,2 F,2 B,2 | B,2 B,2 G,2 B,2- | B,2 B,2 A,2 F,2 | F,2 F,2 B,2 B,2 | %5
 G,2 B,2 F,2 B,2 | B,2 B,2 G,2 B,2- | B,2 B,2 A,2 F,2 | F,2 F,4 F,2- | F,2 F,6 | B,2 G,2 A,2 B,2 | %11
 G,2 A,2- A,G, F,2 | A,2 B,4 B,2 | C2 .C4 A,2 | A,2 F,4 F,2- | F,2 F,4 F,2 | B,2 B,2 G,2 B,2 | %17
 E2 DC ED C2 | A,2 B,4 B,2- | B,2 B,2 A,2 B,2 |] %20
V:5
 F,,2 B,,4 G,2 | E,2 B,,4 D,2 | B,,2 E,4 E,2- | E,2 F,2 F,,2 B,,2 | F,,2 B,,4 G,2 | E,2 B,,4 D,2 | %6
 B,,2 E,4 E,2- | E,2 F,2 F,,2 B,,2 | B,,2 z2 z4 | z2 B,,6 | B,,2 C,6- | C,2 F,4 z2 | %12
 F,2 B,,4 G,,2 | C,B,, A,,2 z B, F,2 | F,2 A,,4 B,,2- | B,,2 z2 z2 B,,2 | B,,2 E,4 E,2- | E,2 F,6 | %18
 F,2 B,,2 D,2 E,2- | E,2 F,2 F,,2 [B,,D,]2 |] %20
V:6
 x8 | x8 | x8 | x8 | x8 | x8 | x8 | x8 | x8 | x8 | x8 | x8 | x8 | z4 C,2 z2 | x8 | x8 | x8 | x8 | %18
 x8 | x8 |] %20

